X:34
T:B034-  The Bonny grey-eyed morn
Q:1/4=120
L:1/4
M:4/4
K:Bb
F/2|B/2A/2B/2c/2d(c/2B/2)|(d/2e/2)ff3/2g/2|\
f/2g/2f/2d/2 (e/2d/2)(c/2B/2)|(A/2B/2)(c/2d/2)c3/2d/2|\
e/2d/2c/2B/2A3/2A/2|(B/2A/2G/2)F/2 =E3/2C/2|\
F/2A/2G/2B/2 (A/2c/2)(d/2c/2)|(B/2A/2)(G/2F/2) F3/2||c/2|\
c/2A/2c/2A/2F3/2f/2|(f/2d/2)(f/2d/2)B3/2d/2|\
e/2G/2c/2A/2^F3/2d/2|(c/2B/2A/2)B/2G3/2C/2||
G/2A/2B/2G/2e3/2d/2|(d/2G/2)(c/2B/2)A3/2F/2|\
B/2d/2c/2e/2 (d/2f/2)(g/2f/2)|(e/2d/2)(c/2B/2)B3/2|]
